X:1
T: Have Kilt Will Travel
C:Muriel A Johnstone
R:Reel
%Q: 232
K:D
M:4/4
L:1/8
|:A2|d2 df ed cB|A3G FE DC|B,D GB A,D FA|GB, ED CA Bc|
d2 df ed cB|A3G FE DC|B,D GB AE FG|F2 D2 D2:|
F2|B3d cB ^Ac|Bc de f2 B2|A3c BA ^GB|AB cd e2 g2|
f3d ed ce|dc Bd cB A2|BA GB Ac eg|f2 d2 d2 F2|
B2 Bd cB ^Ac|Bc de fF B^G|A2 Ac BA ^GB|AB cd ec ge|
fe df ed ce|dc Bd cB A2|BA GB Ac eg|f2 d2 d2||
